X:1
T:Go!
T:Paul Rader, 1918
T:Go!
T:Public Domain
T:Public Domain
C:Paul Rader, 1918
Z:Public Domain
%%score ( 1 2 ) ( 3 4 )
L:1/8
M:6/8
K:F
V:1 treble 
V:2 treble 
V:3 bass 
V:4 bass 
V:1
 [CA][CG][CF] [CE][CF][CG] | [CF]3 [A,C]3 | [B,D][B,D][B,D] [DF]2 [B,D] | [A,C]6 | %4
w: 1.~Down from the glo- ries of|Hea- ven,|Down to the world of|woe;|
w: 2.~Out in the dark they are|dy- ing,|For them His life He|gave;|
w: 3.~“Ut- ter- most part” is His|or- der,|Dare an- y an- swer|no?|
 [CF][CF][CF] [CG][CG][CG] | [FA]3 [FB]3 | [Fc][FA][Fc] [EA]2 [EG] | [CF]6 || %8
w: When there was no eye to|pi- ty,|Je- sus said, “I will|go.”|
w: Go, tell the lost of sal-|va- tion,|Give them a chance to|live.|
w: What will you do when you|meet Him,|If you re- fuse to|go?|
"^Refrain" [CF]3 [CG]3 | [FA]3 [Fc]3 | [Fd][Fc][FA] [CF][CE][CF] | [EG]6 | C[CF][CG] [FA][DB][CA] | %13
w: |||||
w: Go, go,|go, go,|Leave what He asks you to|leave;|Pray for your part in the|
w: |||||
 [DG]3 [Fd]3 | [Fc][Fd][Fc] [FA][DF][EG] | F6 |] %16
w: |||
w: vest, Give|what He asks you to give.||
w: |||
V:2
 x6 | x6 | x6 | x6 | x6 | x6 | x6 | x6 || x6 | x6 | x6 | x6 | C x5 | x6 | x6 | F6 |] %16
w: ||||||||||||||||
w: ||||||||||||har-||||
V:3
 F,[F,B,][F,A,] [G,B,][F,A,][E,B,] | [F,A,]3 F,3 | [B,,F,][B,,F,][B,,F,] [B,,B,]2 [B,,F,] | %3
 [F,,F,]6 | [F,A,][F,A,][F,A,] [E,B,][E,B,][E,B,] | [_E,C]3 [D,B,]3 | %6
 [C,A,][C,C][C,A,] [C,C]2 [C,B,] | [F,A,]6 || [F,A,]3 [F,B,]3 | [F,C]3 [F,A,]3 | %10
 [F,B,][F,A,][F,C] [F,A,][G,B,][F,A,] | [C,C]6 | [F,A,][F,A,][F,B,] [F,C][F,B,]F, | %13
 [B,,B,]3 [=B,,^G,]3 | [C,A,][C,B,][C,A,] [C,C][D,=B,][C,_B,] | [F,A,]6 |] %16
V:4
 F, x5 | x3 F,3 | x6 | x6 | x6 | x6 | x6 | x6 || x6 | x6 | x6 | x6 | x5 F, | x6 | x6 | x6 |] %16

